X:1
T: Miss Mary Printy
C:
R:Reel
Q: 232
K:F
M:4/4
L:1/8
|:C2|F2 F2 A2 A2|c2 =Bc dc AF|G2 G2 B2 B2|c2 =Bc dc _BG|
F2 F2 A2 A2|c2 =Bc dc AF|G2 G2 cB GE|1F2 F2 F2 ((3CDE) :|2F2 F2 F2 AB|
|:c2 Ac Fc Ac|c2 Ac Fc Ac|c2 Bc Ec Bc|c2 Bc Ec Bc|
c2 Ac Fc Ac|c2 Ac Fc Ac|c2 Ac BG EG|1F2 F2 F2 AB:|2F2 F2 F2||
